Newaita/actions/16/format-justify-center.svg

<svg height="16" viewBox="0 0 16 16" width="16" xmlns="http://www.w3.org/2000/svg"><g fill="#424242"><path d="m14.222656 3.433594h-12.570312c-.179688 0-.328125-.148438-.328125-.332032v-.660156c0-.183594.148437-.332031.328125-.332031h12.570312c.183594 0 .332032.148437.332032.332031v.660156c0 .183594-.148438.332032-.332032.332032zm0 0"/><path d="m12.238281 14.347656h-8.601562c-.179688 0-.328125-.148437-.328125-.332031v-.660156c0-.183594.148437-.332031.328125-.332031h8.601562c.183594 0 .332031.148437.332031.332031v.660156c0 .183594-.148437.332031-.332031.332031zm0 0"/><path d="m12.238281 10.710938h-8.601562c-.179688 0-.328125-.148438-.328125-.332032v-.660156c0-.183594.148437-.332031.328125-.332031h8.601562c.183594 0 .332031.148437.332031.332031v.660156c0 .183594-.148437.332032-.332031.332032zm0 0"/><path d="m12.238281 7.070312h-8.601562c-.179688 0-.328125-.148437-.328125-.332031v-.660156c0-.183594.148437-.332031.328125-.332031h8.601562c.183594 0 .332031.148437.332031.332031v.660156c0 .183594-.148437.332031-.332031.332031zm0 0"/></g></svg>

<svg xmlns="http://www.w3.org/2000/svg" xmlns:xlink="http://www.w3.org/1999/xlink" width="16px" height="16px" viewBox="0 0 16 16" version="1.1">
<g id="surface1">
     <defs>
  <style id="current-color-scheme" type="text/css">
   .ColorScheme-Text { color:#424242; } .ColorScheme-Highlight { color:#eeeeee; }
  </style>
 </defs>
<path style="fill:currentColor" class="ColorScheme-Text" d="M 14.222656 3.433594 L 1.652344 3.433594 C 1.472656 3.433594 1.324219 3.285156 1.324219 3.101562 L 1.324219 2.441406 C 1.324219 2.257812 1.472656 2.109375 1.652344 2.109375 L 14.222656 2.109375 C 14.40625 2.109375 14.554688 2.257812 14.554688 2.441406 L 14.554688 3.101562 C 14.554688 3.285156 14.40625 3.433594 14.222656 3.433594 Z M 14.222656 3.433594 "/>
     <defs>
  <style id="current-color-scheme" type="text/css">
   .ColorScheme-Text { color:#424242; } .ColorScheme-Highlight { color:#eeeeee; }
  </style>
 </defs>
<path style="fill:currentColor" class="ColorScheme-Text" d="M 12.238281 14.347656 L 3.636719 14.347656 C 3.457031 14.347656 3.308594 14.199219 3.308594 14.015625 L 3.308594 13.355469 C 3.308594 13.171875 3.457031 13.023438 3.636719 13.023438 L 12.238281 13.023438 C 12.421875 13.023438 12.570312 13.171875 12.570312 13.355469 L 12.570312 14.015625 C 12.570312 14.199219 12.421875 14.347656 12.238281 14.347656 Z M 12.238281 14.347656 "/>
     <defs>
  <style id="current-color-scheme" type="text/css">
   .ColorScheme-Text { color:#424242; } .ColorScheme-Highlight { color:#eeeeee; }
  </style>
 </defs>
<path style="fill:currentColor" class="ColorScheme-Text" d="M 12.238281 10.710938 L 3.636719 10.710938 C 3.457031 10.710938 3.308594 10.5625 3.308594 10.378906 L 3.308594 9.71875 C 3.308594 9.535156 3.457031 9.386719 3.636719 9.386719 L 12.238281 9.386719 C 12.421875 9.386719 12.570312 9.535156 12.570312 9.71875 L 12.570312 10.378906 C 12.570312 10.5625 12.421875 10.710938 12.238281 10.710938 Z M 12.238281 10.710938 "/>
     <defs>
  <style id="current-color-scheme" type="text/css">
   .ColorScheme-Text { color:#424242; } .ColorScheme-Highlight { color:#eeeeee; }
  </style>
 </defs>
<path style="fill:currentColor" class="ColorScheme-Text" d="M 12.238281 7.070312 L 3.636719 7.070312 C 3.457031 7.070312 3.308594 6.921875 3.308594 6.738281 L 3.308594 6.078125 C 3.308594 5.894531 3.457031 5.746094 3.636719 5.746094 L 12.238281 5.746094 C 12.421875 5.746094 12.570312 5.894531 12.570312 6.078125 L 12.570312 6.738281 C 12.570312 6.921875 12.421875 7.070312 12.238281 7.070312 Z M 12.238281 7.070312 "/>
</g>
</svg>
